static/assets/img/icons/theme/general/scissors.svg

<svg height="24" viewBox="0 0 24 24" width="24" xmlns="http://www.w3.org/2000/svg"><g fill="none" fill-rule="evenodd"><path d="m0 0h24v24h-24z" opacity="0"/><g fill="#000" fill-rule="nonzero"><path d="m7.70696074 11.6465196-3.55035733-1.89352388c-.19492403-.10395949-.26866537-.34625245-.16470588-.54117647.09171319-.17196223.29400974-.25279691.47897349-.19139065l5.10118129 1.6935452zm5.02533816 2.6801804 3.6363764-1.3563099 2.2630064.7512973-.001729.0008639c1.3785349.4699564 2.3700473 1.7759828 2.3700473 3.3135893 0 1.9329966-1.5670034 3.5-3.5 3.5s-3.5-1.5670034-3.5-3.5c0-.648108.176158-1.255072.4832056-1.7756237zm4.7677011 1.2094406c-.8284271 0-1.5.6715728-1.5 1.5 0 .8284271.6715729 1.5 1.5 1.5s1.5-.6715729 1.5-1.5c0-.8284272-.6715729-1.5-1.5-1.5z" opacity=".3"/><path d="m17.5 9c.8284271 0 1.5-.67157288 1.5-1.5s-.6715729-1.5-1.5-1.5-1.5.67157288-1.5 1.5.6715729 1.5 1.5 1.5zm-3.0167944.27562366c-.3070476-.52055169-.4832056-1.12751572-.4832056-1.77562366 0-1.93299662 1.5670034-3.5 3.5-3.5s3.5 1.56700338 3.5 3.5c0 1.53760648-.9915124 2.8436328-2.3700473 3.3135893l.001729.0008638-14.16081068 4.7012589c-.18496375.0614062-.3872603-.0194285-.47897349-.1913907-.10395949-.194924-.03021815-.437217.16470588-.5411765z"/></g></g></svg>

<svg width="24px" height="24px" viewBox="0 0 24 24" version="1.1" xmlns="http://www.w3.org/2000/svg" xmlns:xlink="http://www.w3.org/1999/xlink">
    <title>Icon For Scissors</title>
    <g stroke="none" stroke-width="1" fill="none" fill-rule="evenodd">
        <rect opacity="0" x="0" y="0" width="24" height="24"></rect>
        <path d="M7.70696074,11.6465196 L4.15660341,9.75299572 C3.96167938,9.64903623 3.88793804,9.40674327 3.99189753,9.21181925 C4.08361072,9.03985702 4.28590727,8.95902234 4.47087102,9.0204286 L9.57205231,10.7139738 L7.70696074,11.6465196 Z M12.7322989,14.3267 L16.3686753,12.9703901 L18.6316817,13.7216874 L18.6299527,13.7225513 C20.0084876,14.1925077 21,15.4985341 21,17.0361406 C21,18.9691372 19.4329966,20.5361406 17.5,20.5361406 C15.5670034,20.5361406 14,18.9691372 14,17.0361406 C14,16.3880326 14.176158,15.7810686 14.4832056,15.2605169 L12.7322989,14.3267 Z M17.5,15.5361406 C16.6715729,15.5361406 16,16.2077134 16,17.0361406 C16,17.8645677 16.6715729,18.5361406 17.5,18.5361406 C18.3284271,18.5361406 19,17.8645677 19,17.0361406 C19,16.2077134 18.3284271,15.5361406 17.5,15.5361406 Z" fill="#000000" fill-rule="nonzero" opacity="0.3"></path>
        <path d="M17.5,9 C18.3284271,9 19,8.32842712 19,7.5 C19,6.67157288 18.3284271,6 17.5,6 C16.6715729,6 16,6.67157288 16,7.5 C16,8.32842712 16.6715729,9 17.5,9 Z M14.4832056,9.27562366 C14.176158,8.75507197 14,8.14810794 14,7.5 C14,5.56700338 15.5670034,4 17.5,4 C19.4329966,4 21,5.56700338 21,7.5 C21,9.03760648 20.0084876,10.3436328 18.6299527,10.8135893 L18.6316817,10.8144531 L4.47087102,15.515712 C4.28590727,15.5771182 4.08361072,15.4962835 3.99189753,15.3243213 C3.88793804,15.1293973 3.96167938,14.8871043 4.15660341,14.7831448 L14.4832056,9.27562366 Z" fill="#000000" fill-rule="nonzero"></path>
    </g>
</svg>
